packages/tokens/icons/open/size16Px.svg

<svg viewBox="0 0 16 16" fill="none" xmlns="http://www.w3.org/2000/svg" width="1em" height="1em"><path d="M6.5 2.5H4.16667C3.24619 2.5 2.5 3.24619 2.5 4.16667V11.8333C2.5 12.7538 3.24619 13.5 4.16667 13.5H11.8333C12.7538 13.5 13.5 12.7538 13.5 11.8333V9.5" stroke="currentColor" stroke-linecap="round" stroke-linejoin="round"/><path d="M8 8.00001L13.5 2.5M9.5 2.5H13.5M13.5 2.5V6.49999" stroke="currentColor" stroke-linecap="round" stroke-linejoin="round"/></svg>

<svg xmlns="http://www.w3.org/2000/svg" fill="none" viewBox="0 0 16 16" width="1em" height="1em"><path stroke="currentColor" stroke-linecap="round" stroke-linejoin="round" d="M6.5 2.5H4.167c-.92 0-1.667.746-1.667 1.667v7.666c0 .92.746 1.667 1.667 1.667h7.666c.92 0 1.667-.746 1.667-1.667V9.5M8 8l5.5-5.5m-4 0h4m0 0v4"/></svg>
